src/Icon/svgs/filter.svg

<svg xmlns="http://www.w3.org/2000/svg" width="24" height="24" fill="#1B1C1D"><path fill-rule="evenodd" d="M3 19h18v-2H3v2zm0-6h18v-2H3v2zm0-8v2h18V5H3z"/><circle cx="8" cy="18" r="2"/><circle cx="8" cy="6" r="2"/><circle cx="16" cy="12" r="2"/></svg>

<svg width="24" height="24" viewBox="0 0 24 24" fill="none" xmlns="http://www.w3.org/2000/svg">
<path fill-rule="evenodd" clip-rule="evenodd" d="M3 19H21V17H3V19ZM3 13H21V11H3V13ZM3 5V7H21V5H3Z" fill="#1B1C1D"/>
<circle cx="8" cy="18" r="2" fill="#1B1C1D"/>
<circle cx="8" cy="6" r="2" fill="#1B1C1D"/>
<circle cx="16" cy="12" r="2" fill="#1B1C1D"/>
</svg>
